Sources/FrostedUI/Resources/Icons.xcassets/telephone16.imageset/telephone-16.svg

<svg width="16" height="16" viewBox="0 0 16 16" fill="none" xmlns="http://www.w3.org/2000/svg" data-fui-icon="true">
  <path
    d="M10.3701 0C11.2702 6.33636e-05 11.9999 0.729752 12 1.62988V3.78906C11.9998 4.55737 11.4632 5.22169 10.7119 5.38281L8.58301 5.83789C8.53207 6.50248 8.5 7.22526 8.5 8C8.5 8.77437 8.53212 9.49681 8.58301 10.1611L10.7119 10.6172C11.4632 10.7783 11.9998 11.4426 12 12.2109V14.3701C11.9999 15.2702 11.2702 15.9999 10.3701 16H7.43164C6.77945 16 6.1024 15.6978 5.72949 15.0596C5.09822 13.979 4 11.5819 4 8C4 4.41812 5.09822 2.02097 5.72949 0.94043C6.1024 0.302168 6.77945 8.66162e-07 7.43164 0H10.3701ZM7.43164 1.5C7.22284 1.5 7.08696 1.59209 7.02539 1.69727C6.49948 2.59746 5.5 4.73581 5.5 8C5.5 11.2642 6.49948 13.4025 7.02539 14.3027C7.08696 14.4079 7.22284 14.5 7.43164 14.5H10.3701C10.4418 14.4999 10.4999 14.4418 10.5 14.3701V12.2109C10.4998 12.1499 10.4572 12.0969 10.3975 12.084L7.72559 11.5117C7.40613 11.4433 7.16725 11.1758 7.13574 10.8506L7.88281 10.7783L7.88379 10.7773L7.13574 10.8506C7.05308 9.99743 7 9.04262 7 8C7 6.95739 7.05308 6.00257 7.13574 5.14941L7.15723 5.03027C7.22849 4.76039 7.44614 4.54816 7.72559 4.48828L10.3975 3.91602C10.4572 3.90315 10.4998 3.85011 10.5 3.78906V1.62988C10.4999 1.55818 10.4418 1.50006 10.3701 1.5H7.43164Z"
    fill="currentColor"
  />
</svg>

<svg xmlns="http://www.w3.org/2000/svg" width="16" height="16" fill="none" data-fui-icon="true" viewBox="0 0 16 16"><path fill="currentColor" d="M10.37 0c.9 0 1.63.73 1.63 1.63v2.16a1.63 1.63 0 0 1-1.288 1.593l-2.129.455a28 28 0 0 0 0 4.323l2.129.456A1.63 1.63 0 0 1 12 12.211v2.16c0 .9-.73 1.629-1.63 1.629H7.432c-.653 0-1.33-.302-1.703-.94C5.1 13.979 4 11.582 4 8S5.098 2.021 5.73.94C6.101.302 6.78 0 7.431 0zM7.432 1.5c-.21 0-.345.092-.407.197C6.5 2.597 5.5 4.736 5.5 8s1 5.403 1.525 6.303c.062.105.198.197.407.197h2.938a.13.13 0 0 0 .13-.13v-2.16a.13.13 0 0 0-.102-.126l-2.672-.572a.75.75 0 0 1-.59-.661l.747-.073-.747.073A30 30 0 0 1 7 8c0-1.043.053-1.997.136-2.85l.021-.12a.75.75 0 0 1 .569-.542l2.672-.572a.13.13 0 0 0 .102-.127V1.63a.13.13 0 0 0-.13-.129z"/></svg>
